; generated by PrusaSlicer 2.5.2+win64 on 2023-07-28 at 07:48:04 UTC

; 

; external perimeters extrusion width = 0.61mm
; perimeters extrusion width = 0.65mm
; infill extrusion width = 0.70mm
; solid infill extrusion width = 0.65mm
; top infill extrusion width = 0.60mm
; support material extrusion width = 0.55mm
; first layer extrusion width = 0.65mm

M73 P0 R39
M201 X9000 Y9000 Z500 E10000 ; sets maximum accelerations, mm/sec^2
M203 X500 Y500 Z12 E120 ; sets maximum feedrates, mm / sec
M204 P2000 R1500 T2000 ; sets acceleration (P, T) and retract acceleration (R), mm/sec^2
M205 X10.00 Y10.00 Z0.20 E4.50 ; sets the jerk limits, mm/sec
M205 S0 T0 ; sets the minimum extruding and travel feed rate, mm/sec
M107
;TYPE:Custom
M862.3 P "MK2.5S" ; printer model check
M862.1 P0.6 ; nozzle diameter check
M115 U3.11.0 ; tell printer latest fw version
G90 ; use absolute coordinates
M83 ; extruder relative mode
M104 S230 ; set extruder temp
M140 S85 ; set bed temp
M190 S85 ; wait for bed temp
M109 S230 ; wait for extruder temp
G28 W ; home all without mesh bed level
G80 ; mesh bed leveling

G1 Z0.2 F720
G1 Y-3 F1000 ; go outside print area
G92 E0
G1 X60 E9 F1000 ; intro line
G1 X100 E12.5 F1000 ; intro line

G92 E0
G21 ; set units to millimeters
G90 ; use absolute coordinates
M83 ; use relative distances for extrusion
M900 K0.04 ; Filament gcode LA 1.5
M900 K24 ; Filament gcode LA 1.0
M107
;LAYER_CHANGE
;Z:0.2
;HEIGHT:0.2
;BEFORE_LAYER_CHANGE
G92 E0.0
;0.2


G1 E-1 F2100
G1 Z.2 F720
;AFTER_LAYER_CHANGE
;0.2
G1 Z.4
G1 X76.687 Y90.772 F10800
G1 Z.2 F720
G1 E1 F1500
M204 S800
;TYPE:Skirt/Brim
;WIDTH:0.65
G1 F1200
G1 X77.707 Y89.978 E.06527
G1 X78.787 Y89.266 E.06527
G1 X79.919 Y88.641 E.06527
G1 X81.097 Y88.107 E.06527
G1 X82.313 Y87.667 E.06527
G1 X84.627 Y87.112 E.12014
G1 X85.91 Y86.952 E.06527
G1 X87.202 Y86.893 E.06527
G1 X88.494 Y86.936 E.06527
G1 X126.201 Y88.575 E1.90519
G1 X127.677 Y88.751 E.07505
G1 X128.944 Y89.011 E.06527
G1 X130.186 Y89.37 E.06527
G1 X132.385 Y90.281 E.12014
G1 X133.517 Y90.905 E.06527
G1 X134.762 Y91.737 E.0756
G1 X136.047 Y92.797 E.08406
G1 X137.456 Y94.227 E.10134
G1 X138.263 Y95.238 E.06527
G1 X139.095 Y96.483 E.0756
G1 X139.876 Y97.954 E.08406
G1 X140.63 Y99.814 E.10134
G1 X140.989 Y101.056 E.06527
G1 X141.281 Y102.525 E.0756
G1 X141.425 Y103.81 E.06527
G1 X141.425 Y106.19 E.12014
G1 X141.281 Y107.475 E.06527
G1 X140.989 Y108.944 E.0756
G1 X140.63 Y110.186 E.06527
G1 X139.719 Y112.385 E.12014
G1 X139.095 Y113.517 E.06527
G1 X138.383 Y114.597 E.06527
G1 X137.456 Y115.773 E.0756
G1 X135.773 Y117.456 E.12014
G1 X134.597 Y118.383 E.0756
G1 X132.567 Y119.627 E.12014
G1 X131.207 Y120.254 E.0756
G1 X129.992 Y120.694 E.06527
G1 X128.745 Y121.037 E.06527
G1 X126.394 Y121.409 E.12014
G1 X125.102 Y121.468 E.06527
G1 X123.81 Y121.425 E.06527
G1 X86.103 Y119.785 E1.90519
G1 X84.627 Y119.61 E.07505
G1 X83.36 Y119.35 E.06527
G1 X81.097 Y118.614 E.12014
G1 X79.919 Y118.08 E.06527
G1 X78.787 Y117.455 E.06527
G1 X77.707 Y116.744 E.06527
G1 X76.687 Y115.949 E.06527
G1 X75.587 Y114.933 E.0756
G1 X74.715 Y113.978 E.06527
G1 X73.921 Y112.957 E.06527
G1 X73.21 Y111.878 E.06527
G1 X72.429 Y110.407 E.08406
G1 X71.674 Y108.547 E.10134
G1 X71.315 Y107.305 E.06527
G1 X71.055 Y106.038 E.06527
G1 X70.895 Y104.755 E.06527
G1 X70.836 Y103.463 E.06527
G1 X70.879 Y102.171 E.06527
G1 X71.055 Y100.683 E.0756
G1 X71.315 Y99.417 E.06527
G1 X71.674 Y98.174 E.06527
G1 X72.129 Y96.964 E.06527
G1 X73.21 Y94.843 E.12014
G1 X73.921 Y93.764 E.06527
G1 X74.715 Y92.743 E.06527
G1 X75.587 Y91.788 E.06527
G1 X76.621 Y90.833 E.07105
M204 S1000
; printing object pin_handle.STL id:0 copy 0
;WIPE_START
G1 F8640
G1 X77.707 Y89.978 E-.31929
G1 X78.787 Y89.266 E-.29858
G1 X79.919 Y88.641 E-.29857
G1 X80.052 Y88.581 E-.03356
;WIPE_END
G1 E-.05 F2100
G1 Z.4 F720
G1 X128.321 Y94.429 F10800
G1 Z.2 F720
G1 E1 F1500
M204 S800
;TYPE:Perimeter
;WIDTH:0.649999
G1 F1200
G1 X129.242 Y94.76 E.04941
G1 X130.032 Y95.124 E.04393
G1 X130.791 Y95.549 E.04393
G1 X131.515 Y96.033 E.04393
G1 X132.199 Y96.571 E.04393
G1 X132.838 Y97.162 E.04393
G1 X133.429 Y97.801 E.04393
G1 X133.967 Y98.485 E.04393
G1 X134.451 Y99.209 E.04393
G1 X134.876 Y99.968 E.04393
G1 X135.241 Y100.758 E.04394
G1 X135.542 Y101.575 E.04393
G1 X135.778 Y102.412 E.04393
G1 X135.948 Y103.266 E.04393
G1 X136.05 Y104.13 E.04393
G1 X136.084 Y105 E.04393
G1 X136.05 Y105.87 E.04393
G1 X135.948 Y106.734 E.04393
G1 X135.778 Y107.588 E.04393
G1 X135.542 Y108.425 E.04393
G1 X135.24 Y109.242 E.04393
G1 X134.876 Y110.032 E.04393
G1 X134.451 Y110.791 E.04393
G1 X133.967 Y111.515 E.04393
G1 X133.429 Y112.199 E.04393
G1 X132.838 Y112.838 E.04393
G1 X132.199 Y113.429 E.04393
G1 X131.515 Y113.967 E.04393
G1 X130.791 Y114.451 E.04393
G1 X130.032 Y114.876 E.04393
G1 X129.242 Y115.241 E.04394
G1 X128.425 Y115.542 E.04393
G1 X127.588 Y115.778 E.04393
G1 X126.734 Y115.948 E.04393
G1 X125.87 Y116.05 E.04393
G1 X125 Y116.084 E.04393
G1 X124.13 Y116.05 E.04393
G1 X123.266 Y115.948 E.04393
G1 X122.412 Y115.778 E.04393
G1 X121.575 Y115.542 E.04393
G1 X120.758 Y115.241 E.04393
G1 X119.968 Y114.876 E.04393
G1 X119.209 Y114.451 E.04393
G1 X118.485 Y113.967 E.04393
G1 X117.801 Y113.429 E.04393
G1 X117.162 Y112.838 E.04393
G1 X116.571 Y112.199 E.04393
G1 X116.033 Y111.515 E.04393
G1 X115.549 Y110.791 E.04393
G1 X115.124 Y110.032 E.04393
G1 X114.759 Y109.242 E.04394
G1 X114.458 Y108.425 E.04393
G1 X114.222 Y107.588 E.04393
G1 X114.052 Y106.734 E.04393
G1 X113.95 Y105.87 E.04393
G1 X113.916 Y105 E.04393
G1 X113.95 Y104.13 E.04393
G1 X114.052 Y103.266 E.04393
G1 X114.222 Y102.412 E.04393
G1 X114.458 Y101.575 E.04393
G1 X114.76 Y100.758 E.04393
G1 X115.124 Y99.968 E.04393
G1 X115.549 Y99.209 E.04393
G1 X116.033 Y98.485 E.04393
G1 X116.571 Y97.801 E.04393
G1 X117.162 Y97.162 E.04393
G1 X117.801 Y96.571 E.04393
G1 X118.485 Y96.033 E.04393
G1 X119.209 Y95.549 E.04393
G1 X119.968 Y95.124 E.04393
G1 X120.758 Y94.759 E.04394
G1 X121.575 Y94.458 E.04393
G1 X122.412 Y94.222 E.04393
G1 X123.266 Y94.052 E.04393
G1 X124.12 Y93.951 E.0434
G1 X125.138 Y93.921 E.05142
G1 X125.87 Y93.95 E.03696
G1 X126.734 Y94.052 E.04393
G1 X127.588 Y94.222 E.04393
G1 X128.234 Y94.404 E.0339
M204 S1000
G1 X128.485 Y93.844 F10800
M204 S800
G1 F1200
G1 X129.474 Y94.198 E.05301
G1 X130.308 Y94.583 E.04634
G1 X131.109 Y95.031 E.04634
G1 X131.872 Y95.541 E.04634
G1 X132.593 Y96.11 E.04634
G1 X133.267 Y96.733 E.04634
G1 X133.89 Y97.407 E.04634
G1 X134.459 Y98.128 E.04634
G1 X134.969 Y98.891 E.04634
G1 X135.417 Y99.692 E.04634
G1 X135.802 Y100.526 E.04634
G1 X136.12 Y101.387 E.04634
G1 X136.369 Y102.271 E.04634
G1 X136.548 Y103.171 E.04634
G1 X136.656 Y104.083 E.04634
G1 X136.692 Y105 E.04634
G1 X136.656 Y105.917 E.04634
G1 X136.548 Y106.829 E.04634
G1 X136.369 Y107.729 E.04634
G1 X136.12 Y108.613 E.04634
G1 X135.802 Y109.474 E.04634
G1 X135.417 Y110.308 E.04634
G1 X134.969 Y111.109 E.04634
G1 X134.459 Y111.872 E.04634
G1 X133.89 Y112.593 E.04634
G1 X133.267 Y113.267 E.04634
G1 X132.593 Y113.89 E.04634
G1 X131.872 Y114.459 E.04634
G1 X131.109 Y114.969 E.04634
G1 X130.308 Y115.417 E.04634
G1 X129.474 Y115.802 E.04634
G1 X128.613 Y116.12 E.04634
G1 X127.729 Y116.369 E.04634
G1 X126.829 Y116.548 E.04634
G1 X125.917 Y116.656 E.04634
G1 X125 Y116.692 E.04634
G1 X124.083 Y116.656 E.04634
G1 X123.171 Y116.548 E.04634
G1 X122.271 Y116.369 E.04634
G1 X121.387 Y116.12 E.04634
G1 X120.526 Y115.802 E.04634
G1 X119.692 Y115.417 E.04634
G1 X118.891 Y114.969 E.04634
G1 X118.128 Y114.459 E.04634
G1 X117.407 Y113.89 E.04634
G1 X116.733 Y113.267 E.04634
G1 X116.11 Y112.593 E.04634
G1 X115.541 Y111.872 E.04634
G1 X115.031 Y111.109 E.04634
G1 X114.583 Y110.308 E.04634
G1 X114.198 Y109.474 E.04634
G1 X113.88 Y108.613 E.04634
G1 X113.631 Y107.729 E.04634
G1 X113.452 Y106.829 E.04634
G1 X113.344 Y105.917 E.04634
G1 X113.308 Y105 E.04634
G1 X113.344 Y104.083 E.04634
G1 X113.452 Y103.171 E.04634
G1 X113.631 Y102.271 E.04634
G1 X113.88 Y101.387 E.04634
G1 X114.198 Y100.526 E.04634
G1 X114.583 Y99.692 E.04634
G1 X115.031 Y98.891 E.04634
G1 X115.541 Y98.128 E.04634
G1 X116.11 Y97.407 E.04634
G1 X116.733 Y96.733 E.04634
G1 X117.407 Y96.11 E.04634
G1 X118.128 Y95.541 E.04634
G1 X118.891 Y95.031 E.04634
G1 X119.692 Y94.583 E.04634
G1 X120.526 Y94.198 E.04634
G1 X121.387 Y93.88 E.04634
G1 X122.271 Y93.631 E.04634
G1 X123.171 Y93.452 E.04634
G1 X124.075 Y93.345 E.04596
G1 X125.141 Y93.314 E.05383
G1 X125.917 Y93.344 E.03922
G1 X126.829 Y93.452 E.04634
G1 X127.729 Y93.631 E.04634
G1 X128.399 Y93.82 E.03511
M204 S1000
G1 X128.65 Y93.26 F10800
M204 S800
G1 F1200
G1 X129.707 Y93.637 E.05662
G1 X130.584 Y94.041 E.04875
G1 X131.426 Y94.513 E.04875
M73 P1 R39
G1 X132.229 Y95.05 E.04875
G1 X132.988 Y95.648 E.04875
G1 X133.697 Y96.303 E.04875
G1 X134.352 Y97.012 E.04875
G1 X134.95 Y97.771 E.04875
G1 X135.487 Y98.574 E.04875
G1 X135.959 Y99.416 E.04875
G1 X136.363 Y100.293 E.04875
G1 X136.697 Y101.199 E.04875
G1 X136.959 Y102.129 E.04875
G1 X137.148 Y103.076 E.04875
G1 X137.261 Y104.035 E.04875
G1 X137.299 Y105 E.04875
G1 X137.261 Y105.965 E.04875
G1 X137.148 Y106.924 E.04875
G1 X136.959 Y107.871 E.04875
G1 X136.697 Y108.801 E.04875
G1 X136.363 Y109.707 E.04875
G1 X135.959 Y110.584 E.04875
G1 X135.487 Y111.426 E.04875
G1 X134.95 Y112.229 E.04875
G1 X134.352 Y112.988 E.04875
G1 X133.697 Y113.697 E.04875
G1 X132.988 Y114.352 E.04875
G1 X132.229 Y114.95 E.04875
G1 X131.426 Y115.487 E.04875
G1 X130.584 Y115.959 E.04875
G1 X129.707 Y116.363 E.04875
G1 X128.801 Y116.697 E.04875
G1 X127.871 Y116.959 E.04875
G1 X126.924 Y117.148 E.04875
G1 X125.965 Y117.261 E.04875
G1 X125 Y117.299 E.04875
G1 X124.035 Y117.261 E.04875
G1 X123.076 Y117.148 E.04875
G1 X122.129 Y116.959 E.04875
G1 X121.199 Y116.697 E.04875
G1 X120.293 Y116.363 E.04875
G1 X119.416 Y115.959 E.04875
G1 X118.574 Y115.487 E.04875
G1 X117.771 Y114.95 E.04875
G1 X117.012 Y114.352 E.04875
G1 X116.303 Y113.697 E.04875
G1 X115.648 Y112.988 E.04875
G1 X115.05 Y112.229 E.04875
G1 X114.513 Y111.426 E.04875
G1 X114.041 Y110.584 E.04875
G1 X113.637 Y109.707 E.04875
G1 X113.303 Y108.801 E.04875
G1 X113.041 Y107.871 E.04875
G1 X112.852 Y106.924 E.04875
G1 X112.739 Y105.965 E.04875
G1 X112.701 Y105 E.04875
G1 X112.739 Y104.035 E.04875
G1 X112.852 Y103.076 E.04875
G1 X113.041 Y102.129 E.04875
G1 X113.303 Y101.199 E.04875
G1 X113.637 Y100.293 E.04875
G1 X114.041 Y99.416 E.04875
G1 X114.513 Y98.574 E.04875
G1 X115.05 Y97.771 E.04875
G1 X115.648 Y97.012 E.04875
G1 X116.303 Y96.303 E.04875
G1 X117.012 Y95.648 E.04875
G1 X117.771 Y95.05 E.04875
G1 X118.574 Y94.513 E.04875
G1 X119.416 Y94.041 E.04875
G1 X120.293 Y93.637 E.04875
G1 X121.199 Y93.303 E.04875
G1 X122.129 Y93.041 E.04875
G1 X123.076 Y92.852 E.04875
G1 X124.03 Y92.739 E.04852
G1 X125.144 Y92.706 E.05624
G1 X125.965 Y92.739 E.04148
G1 X126.924 Y92.852 E.04875
G1 X127.871 Y93.041 E.04875
G1 X128.564 Y93.236 E.03631
M204 S1000
G1 X128.815 Y92.676 F10800
M204 S800
;TYPE:External perimeter
G1 F1200
G1 X129.939 Y93.076 E.06023
G1 X130.86 Y93.5 E.05116
G1 X131.744 Y93.995 E.05116
G1 X132.586 Y94.558 E.05116
G1 X133.382 Y95.186 E.05116
G1 X134.127 Y95.873 E.05116
G1 X134.814 Y96.618 E.05116
G1 X135.442 Y97.414 E.05116
G1 X136.005 Y98.256 E.05116
G1 X136.5 Y99.14 E.05115
G1 X136.924 Y100.061 E.05116
G1 X137.275 Y101.012 E.05116
G1 X137.55 Y101.987 E.05116
G1 X137.748 Y102.981 E.05116
G1 X137.867 Y103.987 E.05116
G1 X137.907 Y105 E.05116
G1 X137.867 Y106.013 E.05116
G1 X137.748 Y107.019 E.05116
G1 X137.55 Y108.013 E.05116
G1 X137.275 Y108.988 E.05116
G1 X136.924 Y109.939 E.05116
G1 X136.5 Y110.86 E.05116
G1 X136.005 Y111.744 E.05116
G1 X135.442 Y112.586 E.05116
G1 X134.814 Y113.382 E.05116
G1 X134.127 Y114.127 E.05116
G1 X133.382 Y114.814 E.05116
G1 X132.586 Y115.442 E.05116
G1 X131.744 Y116.005 E.05116
G1 X130.86 Y116.5 E.05115
G1 X129.939 Y116.924 E.05116
G1 X128.988 Y117.275 E.05116
G1 X128.013 Y117.55 E.05116
G1 X127.019 Y117.748 E.05116
G1 X126.013 Y117.867 E.05116
G1 X125 Y117.907 E.05116
G1 X123.987 Y117.867 E.05116
G1 X122.981 Y117.748 E.05116
G1 X121.987 Y117.55 E.05116
G1 X121.012 Y117.275 E.05116
G1 X120.061 Y116.924 E.05116
G1 X119.14 Y116.5 E.05116
G1 X118.256 Y116.005 E.05116
G1 X117.414 Y115.442 E.05116
G1 X116.618 Y114.814 E.05116
G1 X115.873 Y114.127 E.05116
G1 X115.186 Y113.382 E.05116
G1 X114.558 Y112.586 E.05116
G1 X113.995 Y111.744 E.05116
G1 X113.5 Y110.86 E.05115
G1 X113.076 Y109.939 E.05116
G1 X112.725 Y108.988 E.05116
G1 X112.45 Y108.013 E.05116
G1 X112.252 Y107.019 E.05116
G1 X112.133 Y106.013 E.05116
G1 X112.093 Y105 E.05116
G1 X112.133 Y103.987 E.05116
G1 X112.252 Y102.981 E.05116
G1 X112.45 Y101.987 E.05116
G1 X112.725 Y101.012 E.05116
G1 X113.076 Y100.061 E.05116
G1 X113.5 Y99.14 E.05116
G1 X113.995 Y98.256 E.05116
G1 X114.558 Y97.414 E.05116
G1 X115.186 Y96.618 E.05116
G1 X115.873 Y95.873 E.05116
G1 X116.618 Y95.186 E.05116
G1 X117.414 Y94.558 E.05116
G1 X118.256 Y93.995 E.05116
G1 X119.14 Y93.5 E.05115
G1 X120.061 Y93.076 E.05116
G1 X121.012 Y92.725 E.05116
G1 X121.987 Y92.45 E.05116
G1 X122.981 Y92.252 E.05116
G1 X123.986 Y92.133 E.05107
G1 X125.147 Y92.099 E.05864
G1 X126.013 Y92.133 E.04373
G1 X127.019 Y92.252 E.05116
G1 X128.013 Y92.45 E.05116
G1 X128.728 Y92.651 E.03752
M204 S1000
G1 X128.945 Y93.262 F10800
;WIPE_START
G1 F8640
G1 X129.939 Y93.076 E-.29626
G1 X130.86 Y93.5 E-.23401
G1 X131.744 Y93.995 E-.234
G1 X132.413 Y94.442 E-.18573
;WIPE_END
G1 E-.05 F2100
G1 Z.4 F720
G1 X135.114 Y100.942 F10800
G1 Z.2 F720
G1 E1 F1500
M204 S800
;TYPE:Solid infill
;WIDTH:0.650273
G1 F1200
G1 X129.597 Y95.425 E.39405
G1 X129.067 Y95.18 E.02944
G1 X128.174 Y94.86 E.04794
G1 X135.14 Y101.826 E.49751
G1 X135.335 Y102.519 E.03634
G1 X135.425 Y102.97 E.02325
G1 X127.03 Y94.575 E.59958
G1 X126.663 Y94.502 E.0189
G1 X126.022 Y94.426 E.03259
G1 X135.574 Y103.978 E.68218
G1 X135.624 Y104.888 E.046
G1 X125.114 Y94.377 E.75064
G1 X124.28 Y94.402 E.04215
G1 X135.6 Y105.723 E.80852
G1 X135.517 Y106.498 E.03941
G1 X123.502 Y94.483 E.85816
G1 X122.774 Y94.614 E.03733
G1 X135.386 Y107.226 E.90072
G1 X135.335 Y107.481 E.01314
G1 X135.213 Y107.912 E.02263
G1 X122.088 Y94.787 E.93744
G1 X121.716 Y94.892 E.01952
G1 X121.436 Y94.995 E.01502
G1 X135.005 Y108.564 E.96909
G1 X134.766 Y109.183 E.03355
G1 X120.817 Y95.234 E.99626
G1 X120.229 Y95.505 E.03269
G1 X134.495 Y109.771 E1.01889
G1 X134.19 Y110.325 E.03194
G1 X119.675 Y95.81 E1.03669
G1 X119.145 Y96.139 E.0315
G1 X133.861 Y110.855 E1.051
G1 X133.509 Y111.361 E.03116
G1 X118.639 Y96.491 E1.06203
G1 X118.158 Y96.87 E.03089
G1 X133.13 Y111.842 E1.06929
G1 X132.722 Y112.292 E.03071
G1 X117.708 Y97.278 E1.07232
G1 X117.484 Y97.484 E.01535
G1 X117.278 Y97.708 E.01535
G1 X132.292 Y112.722 E1.07232
G1 X131.842 Y113.13 E.03071
M73 P2 R39
G1 X116.87 Y98.158 E1.06929
G1 X116.491 Y98.639 E.03089
G1 X131.361 Y113.509 E1.06203
G1 X130.855 Y113.861 E.03116
G1 X116.139 Y99.145 E1.051
G1 X115.81 Y99.675 E.0315
G1 X130.325 Y114.19 E1.03668
G1 X129.771 Y114.495 E.03194
G1 X115.505 Y100.229 E1.01889
G1 X115.234 Y100.817 E.03269
G1 X129.183 Y114.766 E.99626
G1 X128.563 Y115.005 E.03355
M73 P2 R38
G1 X114.995 Y101.437 E.96909
G1 X114.892 Y101.716 E.01502
G1 X114.787 Y102.088 E.01952
G1 X127.912 Y115.213 E.93744
G1 X127.481 Y115.335 E.02262
G1 X127.226 Y115.386 E.01315
G1 X114.614 Y102.774 E.90072
G1 X114.483 Y103.502 E.03733
G1 X126.498 Y115.517 E.85815
G1 X125.722 Y115.6 E.03941
G1 X114.4 Y104.278 E.80867
G1 X114.376 Y105.112 E.04218
G1 X124.888 Y115.624 E.75074
G1 X123.978 Y115.574 E.046
G1 X114.426 Y106.022 E.68217
G1 X114.502 Y106.663 E.03258
G1 X114.575 Y107.03 E.0189
G1 X122.97 Y115.425 E.59956
G1 X122.519 Y115.335 E.02324
G1 X121.826 Y115.14 E.03635
G1 X114.86 Y108.174 E.49749
G1 X115.18 Y109.067 E.04793
G1 X115.425 Y109.597 E.02945
G1 X120.942 Y115.114 E.39403
M204 S1000
; stop printing object pin_handle.STL id:0 copy 0
; printing object pin_handle.STL id:0 copy 1
;WIPE_START
G1 F8640
G1 X118.032 Y112.205 E-.95
;WIPE_END
G1 E-.05 F2100
G1 Z.4 F720
G1 X90.625 Y92.789 F10800
G1 Z.2 F720
G1 E1 F1500
M204 S800
;TYPE:Perimeter
;WIDTH:0.649999
G1 F1200
